X:1
T:Glory to God, Hallelujah!
T:Glory to God, Hallelujah!
T:William James Kirkpatrick
T:Frances Jane (Fanny) Crosby, 1885
T:Public Domain Courtesy of the Cyber Hymnal™
T:Public Domain Courtesy of the Cyber Hymnal™
C:William James Kirkpatrick
Z:Public Domain
Z:Courtesy of the Cyber Hymnal™
%%score ( 1 2 ) ( 3 4 )
L:1/8
Q:1/4=105
M:4/4
K:Eb
V:1 treble 
V:2 treble 
V:3 bass 
V:4 bass 
V:1
 [B,E][B,F] | [EG][EG][EG][EG] [GB][EG][DF]E | [Ec]2 [Ec]2 [EB]4 | [Ge]2 [Ge]>[Ge] (eB)[EG]E | %4
w: 1.~We are|nev- er, nev- er wear- y of the|grand old song;|Glo- ry to God, * hal- le-|
w: 2.~We are|lost a- mid the rap- ture of re-|deem- ing love|Glo- ry to God, * hal- le-|
w: 3.~We are|go- ing to a pal- ace that is|built of gold;|Glo- ry to God, * hal- le-|
w: 4.~There we’ll|shout re- deem- ing mer- cy in a|glad, new song;|Glo- ry to God, * hal- le-|
 ([DF]3 [EG]) [DF]2 E[EF] | [EG][EG][EG][EG] [GB][EG][DF]E | [Ec]2 [Ec]2 [EB]4 | %7
w: lu- * jah! We can|sing it loud as ev- er, With our|faith more strong;|
w: lu- * jah! We are|ris- ing on its pin- ions To the|hills a- bove:|
w: lu- * jah! Where the|King in all His splen- dor We shall|soon be- hold|
w: lu- * jah! There we’ll|sing the praise of Je- sus With the|blood washed throng;|
S [Ge]2 [Ge]>[Ge] (eB)[EG]E | [DF]4 !fermata![B,E]2!fine! ||"^Refrain" [EG][FA] | %10
w: Glo- ry to God, * hal- le-|lu- jah!||
w: Glo- ry to God, * hal- le-|lu- jah!|O, the|
w: Glo- ry to God, * hal- le-|lu- jah!||
w: Glo- ry to God, * hal- le-|lu- jah!||
 [GB][GB] [GB]>[GB] [GB]2 [GB][GB] | [Ac]>[Ac] [Ac][Ac] [GB]2 [GB]>[GB] | %12
w: ||
w: child- ren of the Lord have a|right to shout and sing, For the|
w: ||
w: ||
 [Ge][Ge][Bd][Ac] [GB]2 [^F=A][GB] | [Ac][GB] [GB]>[EG] !fermata![DF]2 [DB][FA] | %14
w: ||
w: way is grow- ing bright, and our|souls are on the wing; We are|
w: ||
w: ||
 [EG][EG] [EG]>[B,F] [B,E]2 [GB][GB] | [Ac][Ac] [Ac]>[Ac] [GB]4!D.S.! |] %16
w: ||
w: go- ing by and by to the|pal- ace of a king!|
w: ||
w: ||
V:2
 x2 | x8 | x8 | x4 G2 x2 | x8 | x8 | x8 | x4 G2 x2 | x6 || x2 | x8 | x8 | x8 | x8 | x8 | x8 |] %16
V:3
 [E,G,][E,A,] | [E,B,][E,B,][E,B,][E,B,] [E,E][E,B,][E,A,][E,G,] | [A,,A,]2 [C,A,]2 [E,G,]4 | %3
 B,2 [G,B,]>[A,B,] B,E[E,B,][E,G,] | [B,,B,]4 [B,,B,]2 [E,G,][E,A,] | %5
 [E,B,][E,B,][E,B,][E,B,] [E,E][E,B,][E,A,][E,G,] | [A,,A,]2 [C,A,]2 [E,G,]4 | %7
 B,2 [G,B,]>[A,B,] B,E[E,B,][E,G,] | [B,,A,]4 !fermata![E,G,]2 || [E,B,][E,B,] | %10
 [E,E][E,E] [E,E]>[E,E] [E,E]2 [E,E][E,E] | [A,E]>[A,E] [A,E][A,E] [E,E]2 [E,B,]>[E,B,] | %12
 [E,B,][E,B,][E,B,][E,B,] [E,E]2 [E,E][E,E] | %13
 [E,E][E,E] [E,B,]>[E,B,] !fermata![B,,B,]2 [B,,B,][B,,B,] | %14
 [E,B,][E,B,] [E,B,]>[E,A,] [E,G,]2 [E,E][E,E] | [A,E][A,E] [A,E]>[A,E] [E,E]4 |] %16
V:4
 x2 | x8 | x8 | (E,F,) x (B, E) x3 | x8 | x8 | x8 | (E,F,) x (B, E) x3 | x6 || x2 | x8 | x8 | x8 | %13
 x8 | x8 | x8 |] %16

